svg/structure.svg

<?xml version="1.0" encoding="UTF-8"?>
<svg xmlns="http://www.w3.org/2000/svg" xmlns:xlink="http://www.w3.org/1999/xlink" width="32" height="32" viewBox="0 0 32 32">
<path fill-rule="nonzero" fill="rgb(0%, 0%, 0%)" fill-opacity="1" d="M 22.398438 3.839844 C 21.339844 3.847656 20.484375 4.703125 20.480469 5.761719 L 20.480469 8 L 11.519531 14.71875 L 11.519531 13.441406 C 11.515625 12.382812 10.660156 11.523438 9.601562 11.519531 L 1.921875 11.519531 C 0.863281 11.523438 0.00390625 12.378906 0 13.441406 L 0 18.558594 C 0.00390625 19.617188 0.863281 20.476562 1.921875 20.480469 L 9.601562 20.480469 C 10.660156 20.472656 11.515625 19.617188 11.519531 18.558594 L 11.519531 17.28125 L 20.480469 24 L 20.480469 26.238281 C 20.484375 27.296875 21.339844 28.152344 22.398438 28.160156 L 30.078125 28.160156 C 31.136719 28.15625 31.996094 27.296875 32 26.238281 L 32 21.121094 C 31.996094 20.0625 31.136719 19.203125 30.078125 19.199219 L 22.398438 19.199219 C 21.339844 19.207031 20.484375 20.0625 20.480469 21.121094 L 20.480469 22.398438 L 11.960938 16 L 20.480469 9.601562 L 20.480469 10.878906 C 20.484375 11.9375 21.339844 12.792969 22.398438 12.800781 L 30.078125 12.800781 C 31.136719 12.796875 31.996094 11.9375 32 10.878906 L 32 5.761719 C 31.996094 4.703125 31.136719 3.84375 30.078125 3.839844 Z M 22.398438 5.121094 L 30.078125 5.121094 C 30.429688 5.121094 30.71875 5.40625 30.71875 5.761719 L 30.71875 10.878906 C 30.71875 11.234375 30.433594 11.519531 30.078125 11.519531 L 22.398438 11.519531 C 22.046875 11.515625 21.761719 11.230469 21.761719 10.878906 L 21.761719 5.761719 C 21.761719 5.40625 22.046875 5.121094 22.398438 5.121094 M 1.921875 12.800781 L 9.601562 12.800781 C 9.953125 12.800781 10.238281 13.085938 10.238281 13.441406 L 10.238281 18.558594 C 10.238281 18.914062 9.953125 19.199219 9.601562 19.199219 L 1.921875 19.199219 C 1.570312 19.191406 1.289062 18.910156 1.28125 18.558594 L 1.28125 13.441406 C 1.28125 13.085938 1.570312 12.800781 1.921875 12.800781 M 22.398438 20.480469 L 30.078125 20.480469 C 30.429688 20.480469 30.71875 20.765625 30.71875 21.121094 L 30.71875 26.238281 C 30.71875 26.40625 30.652344 26.570312 30.53125 26.691406 C 30.410156 26.804688 30.246094 26.871094 30.078125 26.875 L 22.398438 26.875 C 22.046875 26.871094 21.765625 26.585938 21.761719 26.238281 L 21.761719 21.121094 C 21.761719 20.765625 22.046875 20.480469 22.398438 20.480469 M 22.398438 20.480469 "/>
</svg>

<svg role="img" viewBox="0 0 32 32" height="32" width="32" xmlns="http://www.w3.org/2000/svg"><path d="M22.398 3.84a1.93 1.93 0 0 0-1.918 1.922V8l-8.96 6.719V13.44a1.927 1.927 0 0 0-1.918-1.921h-7.68A1.928 1.928 0 0 0 0 13.44v5.118a1.93 1.93 0 0 0 1.922 1.921h7.68a1.93 1.93 0 0 0 1.918-1.921V17.28L20.48 24v2.238a1.93 1.93 0 0 0 1.918 1.922h7.68A1.93 1.93 0 0 0 32 26.238v-5.117a1.93 1.93 0 0 0-1.922-1.922h-7.68a1.93 1.93 0 0 0-1.918 1.922v1.277L11.96 16l8.52-6.398v1.277a1.93 1.93 0 0 0 1.918 1.922h7.68A1.93 1.93 0 0 0 32 10.879V5.762a1.93 1.93 0 0 0-1.922-1.922Zm0 1.281h7.68a.64.64 0 0 1 .64.64v5.118c0 .355-.284.64-.64.64h-7.68a.643.643 0 0 1-.636-.64V5.762c0-.356.285-.64.636-.64M1.922 12.8h7.68c.351 0 .636.285.636.64v5.118c0 .355-.285.64-.636.64h-7.68a.654.654 0 0 1-.64-.64V13.44a.64.64 0 0 1 .64-.64m20.476 7.68h7.68a.64.64 0 0 1 .64.64v5.117a.642.642 0 0 1-.187.453.673.673 0 0 1-.453.184h-7.68a.642.642 0 0 1-.636-.637V21.12c0-.355.285-.64.636-.64m0 0"/></svg>
